!!!COM: Bach, Johann Sebastian
!!!CDT: 1685/3//-1750/7/28/
!!!OTL@@DE: Wo Gott der Herr nicht bei uns haelt
!!!AGN: 4-Part Chorale
!!!SCT: BH 336
!!!SCT: BWV 258
**harm	**root	**kern	**kern	**kern	**kern
!	!	!bass	!tenor	!alto	!soprno
*	*Iorgan	*Iorgan	*Iorgan	*Iorgan	*Iorgan
*	*	*clefF4	*clefF2	*clefG2	*clefG2
*M4/4	*M4/4	*M4/4	*M4/4	*M4/4	*M4/4
*met(c)	*met(c)	*met(c)	*met(c)	*met(c)	*met(c)
*MM60	*MM60	*MM60	*MM60	*MM60	*MM60
*k[f#c#g#d#]	*k[f#c#g#d#]	*k[f#c#g#d#]	*k[f#c#g#d#]	*k[f#c#g#d#]	*k[f#c#g#d#]
*c#:	*c#:	*c#:	*c#:	*c#:	*c#:
*>[A,A,B]	*>[A,A,B]	*>[A,A,B]	*>[A,A,B]	*>[A,A,B]	*>[A,A,B]
*>A	*>A	*>A	*>A	*>A	*>A
i	4BB	4c#	4e	8g#	4ee
.	.	.	.	8a	.
=1	=1	=1	=1	=1	=1
IIIb	4DD	4G#	4e	4b	4ee
VI	4GG	4A	4e	4a	8cc#
.	.	.	.	.	8dd#
IIIb	4DD	8G#	4e	4b	8ee
.	.	8F#	.	.	8ff#
III	4DD	4E	4e	4b	4gg#
=2	=2	=2	=2	=2	=2
V7b/-VII	4EE	4A#	4e	4cc#	4ff#
V7/III	4AA	4B	4d#	8b	4ff#
.	.	.	.	8a	.
III;	4DD;	4E;	4B;	4g#;	4ee;
viiob/-VII	4GG#	4C#	4c#	4a#	4ee
=3	=3	=3	=3	=3	=3
-VII	4AA	4BB	4f#	4b	4dd#
iv	4EE	4F#	4f#	4a	8cc#
.	.	.	.	.	8dd#
i	4BB	8c#	8e	4g#	4ee
.	.	8B	8d#	.	.
iv	8EE	8A	4c#	8f#	8ff#
ic	8BB	8G#	.	8g#	8ee
=4	=4	=4	=4	=4	=4
ii7Db	4CC#	4F#	4c#	4a	2dd#
V7	4FF#	4G#	8B#	4g#	.
.	.	.	8f#	.	.
i	4BB	4C#;	4e;	4g#;	4cc#;
=:|!	=:|!	=:|!	=:|!	=:|!	=:|!
*>B	*>B	*>B	*>B	*>B	*>B
-VIIb	4AA	4D#	4B	4b	4ff#
=5	=5	=5	=5	=5	=5
III	2DD	8E	4B	4b	4gg#
.	.	8F#	.	.	.
.	.	8G#	8B	4b	4gg#
.	.	8A	8c#	.	.
-VII	4AA	4B	4d#	8f#	8dd#
.	.	.	.	8g#	8ee
vii7o	4AA#	4B#	4d#	4a	4ff#
!!linebreak: 2
=6	=6	=6	=6	=6	=6
i	4BB	4c#	8e	4g#	4ee
.	.	.	8d#	.	.
vii7o/V	4EE#	4F##	4c#	4a#	4ee
V	4FF#	4G#;	4g#;	4b#;	4dd#;
i	4BB	8c#	4g#	4cc#	4ee
.	.	8B	.	.	.
=7	=7	=7	=7	=7	=7
V/-VII	2EE	8A#	4c#	8cc#	4ff#
.	.	8G#	.	8b	.
.	.	4F#	4f#	4a#	8cc#
.	.	.	.	.	8dd#
III	4DD	8G#	8B	4g#	4ee
.	.	8A#	8c#	.	.
-VII	4AA	4B	4d#	4f#	4dd#
=8	=8	=8	=8	=8	=8
V7b/IV	4BB	4E#	4g#	4b	4cc#
V7/-VII	4EE	4F#	8f#	4a#	4cc#
.	.	.	8e	.	.
-VII	4AA	4BB;	4d#;	4f#;	4b;
viiob/-VII	4GG#	4C#	4e	4a#	4ee
=9	=9	=9	=9	=9	=9
-VIIb	4AA	8D#	4f#	4b	4dd#
.	.	8E	.	.	.
V/-VII	4EE	4F#	4f#	8a#	8cc#
.	.	.	.	8b#	8dd#
i	4BB	8c#	4g#	4cc#	4ee
.	.	8B	.	.	.
iv	8EE	8A	4c#	8cc#	8ff#
ic	8BB	8G#	.	8g#	8ee
=10	=10	=10	=10	=10	=10
ii7Db	4CC#	4F#	4c#	4a	2dd#
V7	4FF#	4G#	4B#	8g#	.
.	.	.	.	8f#	.
i;	4BB;	4C#;	4G#;	4e;	4cc#;
==	==	==	==	==	==
*-	*-	*-	*-	*-	*-
!!chor2scor: -l 2 -s 0.6 -o %b.pmx
!!!YEC: Copyright 2003 by Craig Stuart Sapp
!!!license: GNU General Public License (http://www.gnu.org/copyleft/gpl.html)
!!!SMA: 371 Bach Chorales, edited by Ludwig Erk, C.F. Peters
!!!PDT: 1850, 1865
!!!ONB: Harmony and Root analysis done manually by Craig Sapp
